X:1
T: The Countess of Haddington
C:
R:Reel
Q: 232
K:C
M:4/4
L:1/8
|:G|EF G2 c2 G2|EF G2 c2 G2|A2 F2 AG FE|D2 d4 e2|
EF G2 c2 G2|EF G2 c2 a2|g2 e2 fe dc|1G2 c2 c3g:|2G2 c2 c3e|
|:cd ef g2 c'2|c2 c'2 g2 e2|f2 d2 fe dc|
|1A2 d4 e2|cd ef g2 c'2|c2 c'2 g2 e2|f2 d2 fe dc|G2 c2 c3e:|
|2A2 d4 e2|c2 G2 E2 G2|c2 g2 e2 a2|g3e fe dc|G2 c2 c3||
